X:1
T: Johnny McGill
C:
R:Jig
Q:180
K:F
M:6/8
L:1/16
|:f2|c2A2A2 A2G2F2|c2A2A2 A4f2|c2A2A2 A2G2A2|F2D2D2 D4f2|
c2A2A2 A2G2F2|c2A2A2 A2G2F2|G2A2B2 A2G2A2|F2D2D2 D4c2|
f6g6|a2f2d2 c2A2F2|f6g6|a2f2d2 d4fg|
a2f2a2 g2e2g2|f2d2e2 f4c2|c2A2F2 G4A2|F2D2D2 D4:|
c2|f6g6|a2f2d2 c2A2F2|f6g6|a2f2d2 d4fg|
a2f2a2 g2e2g2|f2d2e2 f4c2|c2A2F2 G4A2|F2D2D2 D4||
